src/icons/tabbar/Chartline.svg

<svg width="40" height="32" viewBox="0 0 40 32" fill="none" xmlns="http://www.w3.org/2000/svg">
<path fill-rule="evenodd" clip-rule="evenodd" d="M26 4.9C25.3925 4.9 24.9 5.39249 24.9 6C24.9 6.60751 25.3925 7.1 26 7.1H28.3006L20.0198 15.1926C19.9826 15.229 19.9239 15.2308 19.8845 15.1968L16.0034 11.8449C15.1399 11.0991 13.8602 11.0991 12.9967 11.8449L8.28106 15.9175C7.82128 16.3146 7.77045 17.0092 8.16754 17.469C8.56462 17.9288 9.25924 17.9796 9.71902 17.5825L14.4347 13.5099C14.4722 13.4775 14.5279 13.4775 14.5654 13.5099L18.4466 16.8618C19.351 17.6429 20.7028 17.6013 21.5574 16.7661L29.9 8.61306V11C29.9 11.6075 30.3925 12.1 31 12.1C31.6076 12.1 32.1 11.6075 32.1 11V6C32.1 5.39249 31.6076 4.9 31 4.9H26ZM13 29H27C28.4002 29 29.1002 29 29.635 28.7275C30.1054 28.4879 30.4879 28.1054 30.7276 27.635C31 27.1002 31 26.4002 31 25V15.4967C31 14.6149 30.2852 13.9 29.4033 13.9C28.9847 13.9 28.5827 14.0645 28.2841 14.358L21.6421 20.8861C21.0651 21.4532 20.7765 21.7368 20.4438 21.8463C20.151 21.9427 19.8356 21.9465 19.5406 21.8573C19.2053 21.7558 18.91 21.4793 18.3194 20.9263L16.1002 18.8483C15.5353 18.3194 15.2529 18.055 14.9303 17.9522C14.6461 17.8616 14.3414 17.8578 14.055 17.9413C13.7299 18.0361 13.441 18.2935 12.8633 18.8082L10.6071 20.8183C10.0155 21.3454 9.71965 21.6089 9.50742 21.9258C9.31933 22.2066 9.18005 22.5172 9.09548 22.8445C9.00004 23.2138 9.00004 23.6099 9.00004 24.4023V25C9.00004 26.4002 9.00004 27.1002 9.27253 27.635C9.51221 28.1054 9.89466 28.4879 10.3651 28.7275C10.8998 29 11.5999 29 13 29Z" fill="black"/>
</svg>

<svg width="40" height="32" viewBox="0 0 40 32" fill="none" xmlns="http://www.w3.org/2000/svg"><path fill-rule="evenodd" clip-rule="evenodd" d="M26 4.9a1.1 1.1 0 0 0 0 2.2h2.3l-8.28 8.093a.1.1 0 0 1-.136.004l-3.88-3.352a2.3 2.3 0 0 0-3.007 0L8.28 15.917a1.1 1.1 0 0 0 1.438 1.665l4.716-4.072a.1.1 0 0 1 .13 0l3.882 3.352a2.3 2.3 0 0 0 3.11-.096L29.9 8.613V11a1.1 1.1 0 0 0 2.2 0V6A1.1 1.1 0 0 0 31 4.9h-5zM13 29h14c1.4 0 2.1 0 2.635-.273a2.5 2.5 0 0 0 1.093-1.092C31 27.1 31 26.4 31 25v-9.503a1.597 1.597 0 0 0-2.716-1.139l-6.642 6.528c-.577.567-.866.85-1.198.96a1.5 1.5 0 0 1-.903.011c-.336-.101-.631-.378-1.222-.93L16.1 18.847c-.565-.529-.847-.793-1.17-.896a1.5 1.5 0 0 0-.875-.01c-.325.094-.614.352-1.192.866l-2.256 2.01c-.591.527-.887.79-1.1 1.108-.188.28-.327.591-.412.919C9 23.213 9 23.61 9 24.401V25c0 1.4 0 2.1.273 2.635a2.5 2.5 0 0 0 1.092 1.092C10.9 29 11.6 29 13 29z" fill="#000"/></svg>
